X: 1
T: The Whore in the Corner
S: NLS Adv 5.2.25
N: original key Dmix
S: "pete stewart" <pete@wintonpottery.co.uk> tradtunes 2013-1-28
M: 6/8
L: 1/8
K: Amix
g |\
f/g/af g2e | faf g2e | a/g/fe aec | BBB B2g |\
faf g2e | faf g2e | a/g/fe aec | AAA A2 :|
|: e |\
A2e ece | fdf ece | fdf edc | BBB B2d |\
A2e ece | fdf ece | a/g/fe aec | AAA A2 :|
